app/client/src/assets/icons/blueprintjs/20px/widget.svg

<svg xmlns="http://www.w3.org/2000/svg" xml:space="preserve" viewBox="0 0 20 20"><path fill-rule="evenodd" d="M18 4c1.1 0 2-.9 2-2s-.9-2-2-2-2 .9-2 2 .9 2 2 2zM2 16c-1.1 0-2 .9-2 2s.9 2 2 2 2-.9 2-2-.9-2-2-2zm15-1h2V5h-2v10zM3 5H1v10h2V5zM2 0C.9 0 0 .9 0 2s.9 2 2 2 2-.9 2-2-.9-2-2-2zm3 3h10V1H5v2zm13 13c-1.1 0-2 .9-2 2s.9 2 2 2 2-.9 2-2-.9-2-2-2zM5 19h10v-2H5v2z" clip-rule="evenodd"/></svg>

<?xml version="1.0" encoding="utf-8"?>
<!-- Generator: Adobe Illustrator 17.1.0, SVG Export Plug-In . SVG Version: 6.00 Build 0)  -->
<!DOCTYPE svg PUBLIC "-//W3C//DTD SVG 1.1//EN" "http://www.w3.org/Graphics/SVG/1.1/DTD/svg11.dtd">
<svg version="1.1" id="Layer_1" xmlns="http://www.w3.org/2000/svg" xmlns:xlink="http://www.w3.org/1999/xlink" x="0px" y="0px"
	 viewBox="0 0 20 20" enable-background="new 0 0 20 20" xml:space="preserve">
<g id="widget_1_">
	<g>
		<path fill-rule="evenodd" clip-rule="evenodd" d="M18,4c1.1,0,2-0.9,2-2c0-1.1-0.9-2-2-2s-2,0.9-2,2C16,3.1,16.9,4,18,4z M2,16
			c-1.1,0-2,0.9-2,2c0,1.1,0.9,2,2,2s2-0.9,2-2C4,16.9,3.1,16,2,16z M17,15h2V5h-2V15z M3,5H1v10h2V5z M2,0C0.9,0,0,0.9,0,2
			c0,1.1,0.9,2,2,2s2-0.9,2-2C4,0.9,3.1,0,2,0z M5,3h10V1H5V3z M18,16c-1.1,0-2,0.9-2,2c0,1.1,0.9,2,2,2s2-0.9,2-2
			C20,16.9,19.1,16,18,16z M5,19h10v-2H5V19z"/>
	</g>
</g>
</svg>
